assets/icons/person.svg

<svg width="18" height="18" viewBox="0 0 18 18" fill="none" xmlns="http://www.w3.org/2000/svg">
<path d="M11.6944 2.27039C11.0103 1.53176 10.0547 1.125 9.00003 1.125C7.93972 1.125 6.98101 1.5293 6.30003 2.26336C5.61167 3.00551 5.27628 4.01414 5.35503 5.10328C5.51113 7.25203 7.14624 9 9.00003 9C10.8538 9 12.4861 7.25238 12.6447 5.10398C12.7245 4.02469 12.387 3.01816 11.6944 2.27039Z" fill="_COLOR_VAR_"/>
<path d="M15.1877 16.875H2.8127C2.65072 16.8771 2.49031 16.8431 2.34314 16.7754C2.19597 16.7077 2.06574 16.6081 1.96192 16.4837C1.7334 16.2105 1.64129 15.8375 1.7095 15.4603C2.00622 13.8143 2.93223 12.4316 4.3877 11.4609C5.68075 10.5993 7.31868 10.125 9.0002 10.125C10.6817 10.125 12.3197 10.5996 13.6127 11.4609C15.0682 12.4313 15.9942 13.8139 16.2909 15.46C16.3591 15.8372 16.267 16.2102 16.0385 16.4834C15.9347 16.6078 15.8045 16.7075 15.6573 16.7752C15.5101 16.843 15.3497 16.8771 15.1877 16.875Z" fill="_COLOR_VAR_"/>
</svg>

<svg xmlns="http://www.w3.org/2000/svg" width="18" height="18"><path d="M11.694 2.27C11.01 1.532 10.054 1.125 9 1.125c-1.06 0-2.019.404-2.7 1.138-.688.743-1.024 1.751-.945 2.84C5.511 7.252 7.146 9 9 9s3.486-1.748 3.645-3.896c.08-1.08-.258-2.086-.95-2.834m3.493 14.605H2.813a1.09 1.09 0 0 1-.851-.391 1.24 1.24 0 0 1-.252-1.024c.296-1.646 1.222-3.028 2.678-4C5.68 10.6 7.318 10.126 9 10.126s3.32.475 4.613 1.336c1.455.97 2.381 2.353 2.678 3.999a1.24 1.24 0 0 1-.253 1.023 1.09 1.09 0 0 1-.85.392"/></svg>
